X:1
T:Calming Lo-Fi Melody
M:4/4
L:1/8
K:Dm
A,2- |D4 D2 FA |G2A2 FEDC | D4 D2 FA | G2 A2 F2 D2 | A4 A2 FA | G2 A2 F2 D2 | A4 A2 FA | G2 A2 D8 |